X:152
T:The Wreck of the Herring Fleet
T:Arrane mysh ny Baatyn-skeddan
Z:Jack Campin, http://www.campin.me.uk/
F:Jack Campin's Nine-Note Tunebook
% last edit 27-02-2013
S:W.H. Gill, Manx National Songs
G:Manx ballad on an 18th century fishing disaster
M:3/4
L:1/8
Q:1/4=100
K:DDor
cB|A2 B2 c2|d4    cB|c2  d2 cB|A4
GF|G2 A2 B2|c2 d2 cB|c2 HA2
GG|A2 G2 F2|E4    GG|D2  E2 F2|G4
AB|c2 d2 cB|A2 F2 D2|E2 HD2  |]

